src/Pure/16/symbolic/actions/system-run-symbolic.svg

<?xml version="1.0" encoding="UTF-8" standalone="no"?>
<svg
   width="16"
   height="16"
   enable-background="new"
   version="1.1"
   id="svg2"
   sodipodi:docname="system-run-symbolic.svg"
   inkscape:version="1.4.2 (ebf0e940d0, 2025-05-08)"
   xmlns:inkscape="http://www.inkscape.org/namespaces/inkscape"
   xmlns:sodipodi="http://sodipodi.sourceforge.net/DTD/sodipodi-0.dtd"
   xmlns="http://www.w3.org/2000/svg"
   xmlns:svg="http://www.w3.org/2000/svg">
  <defs
     id="defs2">
     <style
        id="current-color-scheme"
        type="text/css">
        .ColorScheme-Text { color:#363636; }
     </style>
  </defs>
  <sodipodi:namedview
     id="namedview2"
     pagecolor="#ffffff"
     bordercolor="#000000"
     borderopacity="0.25"
     inkscape:showpageshadow="2"
     inkscape:pageopacity="0.0"
     inkscape:pagecheckerboard="0"
     inkscape:deskcolor="#d1d1d1"
     inkscape:zoom="49.6875"
     inkscape:cx="8"
     inkscape:cy="8"
     inkscape:window-width="1920"
     inkscape:window-height="1010"
     inkscape:window-x="0"
     inkscape:window-y="0"
     inkscape:window-maximized="1"
     inkscape:current-layer="svg2" />
  <path
     id="path1"
     style="fill:currentColor"
     class="ColorScheme-Text"
     d="M 5.3730469 0.25976562 C 5.2990469 0.26051563 5.2050469 0.26892187 5.1230469 0.29492188 C 5.1230469 0.29492188 5.0527031 0.43365625 4.9707031 0.84765625 C 4.8697031 1.3536562 4.66225 1.4878125 4.40625 1.6328125 L 4.40625 1.6347656 A 2.668 2.668 0 0 0 4.2304688 1.6875 L 4.2285156 1.6855469 C 3.9345156 1.7035469 3.6871719 1.7049375 3.3261719 1.3359375 C 3.0321719 1.0319375 2.9003906 0.953125 2.9003906 0.953125 A 1.101 1.101 0 0 0 2.5664062 1.1328125 C 2.5664062 1.1328125 2.4003125 1.268875 2.3203125 1.421875 C 2.3203125 1.421875 2.3705156 1.5689219 2.6035156 1.9199219 C 2.8905156 2.3499219 2.8387656 2.591 2.7597656 2.875 L 2.7617188 2.8769531 C 2.7317187 2.9289531 2.7008281 2.9821094 2.6738281 3.0371094 L 2.6699219 3.0371094 C 2.4749219 3.2571094 2.2992031 3.4317812 1.7832031 3.4257812 C 1.3622031 3.4207812 1.2128906 3.4609375 1.2128906 3.4609375 C 1.1278906 3.6109375 1.1054688 3.8242188 1.1054688 3.8242188 C 1.1054688 3.8242188 1.0827656 4.0371719 1.1347656 4.2011719 C 1.1347656 4.2011719 1.2735 4.2715156 1.6875 4.3535156 C 2.1935 4.4545156 2.3276563 4.6639219 2.4726562 4.9199219 L 2.4746094 4.9199219 C 2.4896094 4.9789219 2.5063906 5.03575 2.5253906 5.09375 L 2.5234375 5.0957031 C 2.5414375 5.3897031 2.5428281 5.6350938 2.1738281 5.9960938 C 1.8708281 6.2910937 1.7929688 6.4257813 1.7929688 6.4257812 C 1.8399687 6.5917813 1.9746094 6.7597656 1.9746094 6.7597656 C 1.9746094 6.7597656 2.1087187 6.9258594 2.2617188 7.0058594 C 2.2617188 7.0058594 2.4097656 6.9566562 2.7597656 6.7226562 C 3.1897656 6.4366562 3.4308438 6.4874062 3.7148438 6.5664062 L 3.7167969 6.5644531 C 3.7697969 6.5944531 3.8229531 6.6253437 3.8769531 6.6523438 L 3.8769531 6.6542969 C 4.0969531 6.8492969 4.271625 7.0240625 4.265625 7.5390625 C 4.260625 7.9610625 4.2988281 8.1132812 4.2988281 8.1132812 C 4.4488281 8.1982813 4.6621094 8.2207031 4.6621094 8.2207031 C 4.6621094 8.2207031 4.8779688 8.2424531 5.0429688 8.1894531 C 5.0429688 8.1894531 5.1113594 8.0526719 5.1933594 7.6386719 C 5.2933594 7.1326719 5.5037656 6.9985156 5.7597656 6.8535156 L 5.7597656 6.8496094 C 5.8177656 6.8346094 5.8755938 6.8178281 5.9335938 6.7988281 L 5.9355469 6.8007812 C 6.2295469 6.7827813 6.4759375 6.7813906 6.8359375 7.1503906 C 7.1309375 7.4533906 7.265625 7.53125 7.265625 7.53125 C 7.431625 7.48525 7.5976562 7.3496094 7.5976562 7.3496094 C 7.5976562 7.3496094 7.7657031 7.2135469 7.8457031 7.0605469 C 7.8457031 7.0605469 7.7965 6.9135 7.5625 6.5625 C 7.2755 6.1335 7.32825 5.893375 7.40625 5.609375 L 7.4042969 5.6074219 C 7.4352969 5.5544219 7.4632344 5.5012656 7.4902344 5.4472656 L 7.4941406 5.4472656 C 7.6891406 5.2272656 7.8648594 5.0506406 8.3808594 5.0566406 C 8.8028594 5.0626406 8.9511719 5.0234375 8.9511719 5.0234375 C 9.0361719 4.8734375 9.0585938 4.6601562 9.0585938 4.6601562 C 9.0585938 4.6601562 9.0812969 4.44625 9.0292969 4.28125 C 9.0292969 4.28125 8.8905625 4.2109063 8.4765625 4.1289062 C 7.9705625 4.0289062 7.8364063 3.8214531 7.6914062 3.5644531 L 7.6894531 3.5644531 A 2.538 2.538 0 0 0 7.6386719 3.390625 L 7.640625 3.3886719 C 7.622625 3.0946719 7.6212344 2.8473281 7.9902344 2.4863281 C 8.2932344 2.1923281 8.3710938 2.0585937 8.3710938 2.0585938 C 8.3250937 1.8925938 8.1894531 1.7246094 8.1894531 1.7246094 C 8.1894531 1.7246094 8.0551782 1.557602 7.9023438 1.4785156 C 7.8918296 1.4822155 7.7424426 1.5372516 7.4042969 1.7617188 C 6.9752969 2.0487187 6.7332187 1.9969687 6.4492188 1.9179688 L 6.4472656 1.9199219 A 2.547 2.547 0 0 0 6.2871094 1.8320312 L 6.2871094 1.8300781 C 6.0671094 1.6350781 5.8924375 1.4593594 5.8984375 0.94335938 C 5.9044375 0.52135938 5.8652344 0.37109375 5.8652344 0.37109375 A 1.107 1.107 0 0 0 5.5019531 0.265625 C 5.5019531 0.265625 5.4470469 0.25901562 5.3730469 0.25976562 z M 5.0859375 2.3710938 A 1.870995 1.870995 0 0 1 6.2597656 5.6953125 A 1.8712214 1.8712214 0 1 1 3.9042969 2.7871094 A 1.870995 1.870995 0 0 1 5.0859375 2.3710938 z M 9.3222656 5.875 C 9.1594219 5.8699375 9.0117188 5.8984375 9.0117188 5.8984375 C 9.0117188 5.8984375 8.7473125 5.9502656 8.5703125 6.0722656 C 8.5703125 6.0722656 8.5368438 6.2640625 8.5898438 6.7890625 C 8.6538438 7.4310625 8.4541719 7.6665938 8.2011719 7.9335938 L 8.2011719 7.9375 C 8.1361719 7.9775 8.0747188 8.0204531 8.0117188 8.0644531 L 8.0097656 8.0625 C 7.6657656 8.1915 7.3696875 8.2826563 6.8046875 7.9726562 C 6.3416875 7.7196562 6.1523437 7.6738281 6.1523438 7.6738281 C 5.9713438 7.7888281 5.8222656 8.0117188 5.8222656 8.0117188 C 5.8222656 8.0117188 5.6728125 8.2352656 5.6328125 8.4472656 C 5.6328125 8.4472656 5.7453438 8.6054531 6.1523438 8.9394531 C 6.6523438 9.3474531 6.6775 9.6554375 6.6875 10.023438 L 6.6914062 10.025391 A 3.36 3.36 0 0 0 6.6445312 10.248047 L 6.6425781 10.248047 C 6.4895781 10.583047 6.3455625 10.856109 5.7265625 11.037109 C 5.2205625 11.184109 5.0546875 11.287109 5.0546875 11.287109 C 5.0076875 11.497109 5.0585938 11.761719 5.0585938 11.761719 C 5.0585938 11.761719 5.1094219 12.025125 5.2324219 12.203125 C 5.2324219 12.203125 5.4232187 12.235594 5.9492188 12.183594 C 6.5902188 12.118594 6.82675 12.317312 7.09375 12.570312 L 7.0957031 12.570312 A 3.4 3.4 0 0 0 7.2226562 12.759766 L 7.2207031 12.763672 C 7.3507031 13.108672 7.4408594 13.40275 7.1308594 13.96875 C 6.8778594 14.43075 6.8320313 14.619141 6.8320312 14.619141 C 6.9480312 14.801141 7.171875 14.951172 7.171875 14.951172 C 7.171875 14.951172 7.3934688 15.102578 7.6054688 15.142578 C 7.6054688 15.142578 7.7636563 15.029094 8.0976562 14.621094 C 8.5056562 14.121094 8.8136406 14.095938 9.1816406 14.085938 L 9.1835938 14.082031 C 9.2575937 14.100031 9.33125 14.116906 9.40625 14.128906 L 9.40625 14.132812 C 9.74125 14.284812 10.016266 14.429828 10.197266 15.048828 C 10.344266 15.554828 10.445312 15.720703 10.445312 15.720703 C 10.655313 15.766703 10.919922 15.716797 10.919922 15.716797 C 10.919922 15.716797 11.183328 15.664969 11.361328 15.542969 C 11.361328 15.542969 11.393797 15.351172 11.341797 14.826172 C 11.277797 14.184172 11.477469 13.948641 11.730469 13.681641 L 11.730469 13.677734 C 11.794469 13.637734 11.856922 13.596734 11.919922 13.552734 L 11.921875 13.554688 C 12.266875 13.425688 12.562906 13.334531 13.128906 13.644531 C 13.590906 13.897531 13.779297 13.941406 13.779297 13.941406 C 13.961297 13.825406 14.111328 13.603516 14.111328 13.603516 C 14.111328 13.603516 14.260781 13.381922 14.300781 13.169922 C 14.300781 13.169922 14.18925 13.010734 13.78125 12.677734 C 13.28125 12.268734 13.254141 11.959797 13.244141 11.591797 L 13.242188 11.589844 C 13.260188 11.515844 13.277062 11.441187 13.289062 11.367188 L 13.292969 11.367188 C 13.445969 11.031187 13.588031 10.758125 14.207031 10.578125 C 14.713031 10.430125 14.880859 10.328125 14.880859 10.328125 C 14.926859 10.118125 14.875 9.8535156 14.875 9.8535156 C 14.875 9.8535156 14.823172 9.5901094 14.701172 9.4121094 C 14.701172 9.4121094 14.509375 9.3796406 13.984375 9.4316406 C 13.343375 9.4966406 13.106844 9.2989219 12.839844 9.0449219 L 12.837891 9.0449219 A 3.164 3.164 0 0 0 12.710938 8.8554688 L 12.712891 8.8535156 C 12.583891 8.5085156 12.492734 8.2124844 12.802734 7.6464844 C 13.055734 7.1844844 13.101563 6.9941406 13.101562 6.9941406 C 12.985563 6.8131406 12.763672 6.6621094 12.763672 6.6621094 C 12.763672 6.6621094 12.540125 6.5126562 12.328125 6.4726562 L 12.326172 6.4726562 C 12.326172 6.4726562 12.167984 6.5841875 11.833984 6.9921875 C 11.424984 7.4921875 11.116047 7.5173437 10.748047 7.5273438 L 10.746094 7.53125 A 3.202 3.202 0 0 0 10.525391 7.484375 L 10.525391 7.4824219 C 10.189391 7.3304219 9.914375 7.1854063 9.734375 6.5664062 C 9.586375 6.0604062 9.484375 5.8945312 9.484375 5.8945312 C 9.431875 5.8830313 9.3765469 5.8766875 9.3222656 5.875 z M 9.9140625 8.4707031 A 2.3382341 2.3382341 0 0 1 11.902344 12.115234 A 2.3382802 2.3382802 0 1 1 8.0253906 9.5 A 2.3382341 2.3382341 0 0 1 9.9140625 8.4707031 z " />
</svg>

<svg width="16" height="16" enable-background="new" version="1.1" xmlns="http://www.w3.org/2000/svg">
 <g fill="#363636">
  <path d="M7.903 1.478s-.148.05-.499.283c-.429.287-.67.235-.954.156l-.002.002a2.547 2.547 0 0 0-.16-.087V1.83c-.22-.195-.396-.37-.39-.886.006-.422-.033-.572-.033-.572a1.107 1.107 0 0 0-.364-.107s-.214-.023-.378.029c0 0-.07.139-.152.553-.101.506-.309.64-.565.785v.003a2.668 2.668 0 0 0-.175.052l-.002-.002c-.294.018-.541.019-.902-.35C3.033 1.031 2.9.953 2.9.953a1.101 1.101 0 0 0-.333.18s-.167.136-.247.289c0 0 .05.147.283.498.287.43.235.671.156.955l.002.002c-.03.052-.06.105-.087.16H2.67c-.195.22-.37.395-.886.389-.421-.005-.572.034-.572.034-.085.15-.107.364-.107.364s-.023.214.029.378c0 0 .139.07.553.152.506.101.64.309.785.565h.002c.015.059.033.117.052.175l-.002.002c.018.294.019.54-.35.901-.303.295-.382.429-.382.429.047.166.182.333.182.333s.135.167.288.247c0 0 .148-.05.498-.284.43-.286.671-.234.955-.155l.002-.002c.053.03.106.06.16.087v.003c.22.195.395.37.389.885-.005.422.033.573.033.573.15.085.364.107.364.107s.214.023.379-.03c0 0 .07-.138.152-.552.1-.506.309-.64.565-.785v-.003c.058-.015.116-.033.174-.052l.002.002c.294-.018.541-.019.901.35.295.303.429.381.429.381.166-.046.333-.181.333-.181s.167-.136.247-.289c0 0-.049-.147-.283-.498-.287-.429-.234-.67-.156-.954l-.002-.002c.031-.053.06-.106.087-.16h.003c.195-.22.37-.396.886-.39.422.006.572-.033.572-.033.085-.15.107-.364.107-.364s.023-.214-.029-.379c0 0-.139-.07-.553-.152-.506-.1-.64-.308-.785-.565h-.002a2.538 2.538 0 0 0-.052-.174l.002-.002c-.018-.294-.019-.541.35-.902.303-.294.381-.428.381-.428-.046-.166-.181-.333-.181-.333s-.135-.168-.288-.247zM6.26 5.696a1.87 1.87 0 1 1-2.355-2.908A1.87 1.87 0 0 1 6.26 5.696z" enable-background="new"/>
  <path d="M12.326 6.472s-.158.113-.492.521c-.409.5-.717.525-1.085.535l-.002.003a3.202 3.202 0 0 0-.222-.046v-.003c-.336-.152-.61-.297-.79-.916-.148-.506-.25-.672-.25-.672-.21-.046-.474.005-.474.005s-.264.052-.441.174c0 0-.033.191.02.716.064.642-.135.878-.388 1.145v.004c-.065.04-.127.082-.19.126l-.002-.002c-.344.129-.64.22-1.205-.09-.463-.253-.652-.298-.652-.298-.181.115-.331.338-.331.338s-.15.223-.19.435c0 0 .113.158.52.492.5.408.526.716.536 1.084l.003.002a3.36 3.36 0 0 0-.046.223h-.002c-.153.335-.297.609-.916.79-.506.147-.672.25-.672.25-.047.21.004.473.004.473s.051.264.174.442c0 0 .19.032.716-.02.641-.065.877.135 1.144.388h.003a3.4 3.4 0 0 0 .126.189l-.002.003c.13.345.22.64-.09 1.206-.253.462-.298.651-.298.651.116.182.339.332.339.332s.223.15.435.19c0 0 .158-.113.492-.521.408-.5.716-.525 1.084-.535l.002-.003c.074.018.148.034.223.046v.004c.335.152.609.297.79.916.147.506.249.672.249.672.21.046.474-.005.474-.005s.264-.052.442-.174c0 0 .032-.191-.02-.716-.064-.642.136-.878.389-1.145l-.001-.003c.064-.04.127-.082.19-.126l.002.002c.345-.129.64-.22 1.206.09.462.253.651.298.651.298.182-.116.332-.338.332-.338s.15-.223.19-.435c0 0-.112-.159-.52-.492-.5-.409-.526-.717-.536-1.085l-.002-.002c.018-.074.034-.148.046-.222h.003c.153-.336.297-.61.916-.79.506-.148.672-.25.672-.25.046-.21-.005-.474-.005-.474s-.051-.264-.173-.442c0 0-.192-.032-.717.02-.641.065-.878-.134-1.145-.388h-.003a3.164 3.164 0 0 0-.126-.188l.002-.003c-.129-.345-.22-.64.09-1.206.253-.462.298-.652.298-.652-.116-.181-.338-.332-.338-.332s-.223-.15-.435-.19zm-.423 5.643A2.338 2.338 0 1 1 8.026 9.5a2.338 2.338 0 0 1 3.877 2.615z" enable-background="new"/>
 </g>
</svg>
